MODULE Rd
	CONST robtarget dep:=[[-248.56,-254.10,50.83],[0.121412,-0.464063,-0.87498,0.0656811],[-1,0,0,0],[9E+09,9E+09,9E+09,9E+09,9E+09,9E+09]];
	CONST robtarget dep10:=[[352.57,103.03,417.47],[0.124001,-0.104774,-0.921737,-0.352203],[-1,0,-1,0],[9E+09,9E+09,9E+09,9E+09,9E+09,9E+09]];
	CONST robtarget point_A:=[[348.13,125.23,396.92],[0.124137,-0.104854,-0.921734,-0.352139],[0,0,-1,0],[9E+09,9E+09,9E+09,9E+09,9E+09,9E+09]];
	CONST robtarget point_A10:=[[591.65,121.42,395.02],[0.124061,-0.104788,-0.92174,-0.352171],[0,0,0,0],[9E+09,9E+09,9E+09,9E+09,9E+09,9E+09]];
	CONST robtarget point_B:=[[519.67,121.51,398.05],[0.124199,-0.104889,-0.921776,-0.351997],[0,0,-1,0],[9E+09,9E+09,9E+09,9E+09,9E+09,9E+09]];
	CONST robtarget point_B10:=[[579.97,5.44,279.76],[0.124118,-0.104785,-0.921727,-0.352185],[-1,0,-1,0],[9E+09,9E+09,9E+09,9E+09,9E+09,9E+09]];
	CONST robtarget point_C:=[[504.78,5.95,279.75],[0.124064,-0.104786,-0.921736,-0.352181],[-1,0,-1,0],[9E+09,9E+09,9E+09,9E+09,9E+09,9E+09]];
	CONST robtarget point_C10:=[[341.30,13.68,285.39],[0.12408,-0.10471,-0.921743,-0.352179],[-1,0,-1,0],[9E+09,9E+09,9E+09,9E+09,9E+09,9E+09]];
	CONST robtarget point_D:=[[339.36,14.92,284.77],[0.124158,-0.104796,-0.921712,-0.352208],[-1,0,-1,0],[9E+09,9E+09,9E+09,9E+09,9E+09,9E+09]];
	CONST robtarget point_C20:=[[404.90,-33.91,238.52],[0.124041,-0.104848,-0.921725,-0.352198],[-1,0,-1,0],[9E+09,9E+09,9E+09,9E+09,9E+09,9E+09]];
	CONST robtarget point_E:=[[404.90,-33.91,238.53],[0.124041,-0.104849,-0.921724,-0.352201],[-1,0,-1,0],[9E+09,9E+09,9E+09,9E+09,9E+09,9E+09]];
	CONST robtarget point_B20:=[[519.67,121.51,442.97],[0.124197,-0.104888,-0.921776,-0.351997],[0,0,0,0],[9E+09,9E+09,9E+09,9E+09,9E+09,9E+09]];
	CONST robtarget rebouc:=[[459.95,105.55,707.69],[0.185173,-0.11366,0.975858,0.022197],[0,0,0,0],[9E+09,9E+09,9E+09,9E+09,9E+09,9E+09]];
	CONST robtarget rebouc10:=[[506.57,-36.21,157.93],[0.0170432,0.18716,-0.981891,-0.0238686],[-1,0,-1,0],[9E+09,9E+09,9E+09,9E+09,9E+09,9E+09]];
	CONST robtarget rebouc20:=[[332.44,362.37,583.44],[0.00682273,0.110919,-0.993805,0.00126272],[0,0,0,0],[9E+09,9E+09,9E+09,9E+09,9E+09,9E+09]];
	CONST robtarget rebouc30:=[[512.33,97.35,172.84],[0.0277243,0.203468,-0.978629,0.0108682],[0,-1,-1,0],[9E+09,9E+09,9E+09,9E+09,9E+09,9E+09]];
	CONST robtarget rebouc40:=[[512.36,97.12,139.46],[0.0277893,0.203451,-0.978631,0.0108404],[0,-1,-1,0],[9E+09,9E+09,9E+09,9E+09,9E+09,9E+09]];
	CONST robtarget rebouc50:=[[518.68,97.20,663.04],[0.0277907,0.203505,-0.978619,0.0108362],[0,-1,-1,0],[9E+09,9E+09,9E+09,9E+09,9E+09,9E+09]];
	CONST robtarget rebouc60:=[[425.12,367.27,571.87],[0.0275738,0.20376,-0.978574,0.0107274],[0,0,0,0],[9E+09,9E+09,9E+09,9E+09,9E+09,9E+09]];
	CONST robtarget rebouc70:=[[461.21,356.45,574.49],[0.0276576,0.203609,-0.978602,0.0107672],[0,0,0,0],[9E+09,9E+09,9E+09,9E+09,9E+09,9E+09]];
	CONST robtarget rebouc80:=[[464.21,356.50,572.06],[0.0277072,0.203636,-0.978595,0.010783],[0,0,0,0],[9E+09,9E+09,9E+09,9E+09,9E+09,9E+09]];
	CONST robtarget rebouc90:=[[464.22,356.51,629.17],[0.0276934,0.203653,-0.978592,0.0107816],[0,0,0,0],[9E+09,9E+09,9E+09,9E+09,9E+09,9E+09]];
	CONST robtarget E_1:=[[327.30,358.28,570.23],[0.0284629,0.40794,-0.912022,0.0314673],[0,-1,0,0],[9E+09,9E+09,9E+09,9E+09,9E+09,9E+09]];
	CONST robtarget E_2:=[[509.89,-12.83,140.11],[0.0284553,0.407899,-0.912041,0.0314748],[-1,-1,-1,0],[9E+09,9E+09,9E+09,9E+09,9E+09,9E+09]];
	CONST robtarget E_3:=[[465.33,359.76,568.63],[0.0241489,-0.155763,0.987498,0.00140004],[0,-1,0,0],[9E+09,9E+09,9E+09,9E+09,9E+09,9E+09]];
	CONST robtarget E_4:=[[511.87,101.57,140.85],[0.0240815,-0.155703,0.987509,0.00139136],[0,0,-1,0],[9E+09,9E+09,9E+09,9E+09,9E+09,9E+09]];
	PROC Routine3()
		MoveL [[-261.60,-95.44,140.87],[0.120789,-0.437003,-0.890089,0.0466983],[0,0,0,0],[9E+09,9E+09,9E+09,9E+09,9E+09,9E+09]], v1000, z50, pince3\WObj:=plaque;
		MoveJ [[-41.79,-34.53,115.71],[0.120885,-0.436935,-0.890108,0.0467148],[0,0,0,0],[9E+09,9E+09,9E+09,9E+09,9E+09,9E+09]], v1000, z50, pince3\WObj:=plaque;
		MoveL [[-379.53,-468.07,11.09],[0.120743,-0.43681,-0.890191,0.0466759],[-1,0,-1,0],[9E+09,9E+09,9E+09,9E+09,9E+09,9E+09]], v1000, z50, pince3\WObj:=plaque;
	ENDPROC
	PROC dessin()
		MoveJ dep, v200, fine, pince3\WObj:=plaque;
		MoveJ [[352.57,103.03,417.47],[0.124008,-0.104778,-0.921736,-0.352201],[-1,0,-1,0],[9E+09,9E+09,9E+09,9E+09,9E+09,9E+09]], v200, fine, pince3;
		MoveL point_A, v200, fine, pince3;
		MoveL point_B, v200, fine, pince3;
		MoveL point_C, v200, fine, pince3;
		MoveL point_D, v200, fine, pince3;
		MoveL point_A, v200, fine, pince3;
		MoveL point_C, v200, fine, pince3;
		MoveL point_E, v200, fine, pince3;
		MoveL point_D, v200, fine, pince3;
		MoveL point_B, v200, fine, pince3;
		MoveJ [[519.67,121.51,442.97],[0.124196,-0.104888,-0.921777,-0.351995],[0,0,0,0],[9E+09,9E+09,9E+09,9E+09,9E+09,9E+09]], v200, fine, pince3;
		MoveJ dep, v200, fine, pince3\WObj:=plaque;
	ENDPROC
	PROC vernier()
		MoveAbsJ [[0,0,0,0,0,0],[9E+09,9E+09,9E+09,9E+09,9E+09,9E+09]], v1000, z50, pince3\WObj:=plaque;
	ENDPROC
	PROC prob()
		MoveJ rebouc, v1000, z50, pince3;
		MoveJ [[327.52,360.54,594.04],[0.0284698,0.407943,-0.912021,0.0314698],[0,-1,0,0],[9E+09,9E+09,9E+09,9E+09,9E+09,9E+09]], v200, fine, pince3;
		Reset pince;
		WaitTime 1;
		MoveL E_1, v50, fine, pince3;
		Set pince;
		WaitTime 1;
		MoveJ [[327.29,358.28,596.26],[0.0284661,0.407942,-0.912021,0.0314677],[0,-1,0,0],[9E+09,9E+09,9E+09,9E+09,9E+09,9E+09]], v50, z50, pince3;
		MoveJ [[459.95,105.55,707.69],[0.185171,-0.113658,0.975859,0.0221976],[0,0,0,0],[9E+09,9E+09,9E+09,9E+09,9E+09,9E+09]], v1000, z50, pince3;
		MoveJ [[509.89,-12.8,204.33],[0.0284495,0.407913,-0.912035,0.0314726],[-1,-1,-1,0],[9E+09,9E+09,9E+09,9E+09,9E+09,9E+09]], v1000, z50, pince3;
		MoveJ E_2, v50, fine, pince3;
		Reset pince;
		MoveL [[508.74,-14.25,179.7],[0.0285335,0.40787,-0.912053,0.0314302],[-1,-1,-1,0],[9E+09,9E+09,9E+09,9E+09,9E+09,9E+09]], v50, z50, pince3;
		MoveJ rebouc, v1000, z50, pince3;
	ENDPROC
	PROC rene_1()
		MoveJ rebouc, v1000, fine, pince3;
		MoveL [[464.67,358.33,591.81],[0.0242046,-0.15585,0.987483,0.00144331],[0,-1,0,0],[9E+09,9E+09,9E+09,9E+09,9E+09,9E+09]], v1000, fine, pince3;
		MoveL E_3, v1000, fine, pince3;
		Set pince;
		WaitTime 1;
		MoveL [[465.32,359.76,594.87],[0.0241132,-0.15576,0.9875,0.00141918],[0,-1,0,0],[9E+09,9E+09,9E+09,9E+09,9E+09,9E+09]], v1000, fine, pince3;
		MoveJ rebouc, v1000, fine, pince3;
		MoveL [[511.45,92.75,166.74],[0.0241479,-0.155764,0.987498,0.00139491],[0,0,-1,0],[9E+09,9E+09,9E+09,9E+09,9E+09,9E+09]], v1000, fine, pince3;
		MoveL E_4, v1000, fine, pince3;
		Reset pince;
		WaitTime 1;
		MoveL [[510.81,92.71,179.68],[0.0241645,-0.155761,0.987498,0.00139548],[0,0,-1,0],[9E+09,9E+09,9E+09,9E+09,9E+09,9E+09]], v1000, fine, pince3;
		MoveJ rebouc, v1000, fine, pince3;
	ENDPROC
	PROC rout_3()
		MoveJ rebouc, v200, z50, pince3;
		MoveJ [[506.57,-16.21,157.92],[0.0170421,0.187161,-0.981891,-0.0238687],[-1,0,-1,0],[9E+09,9E+09,9E+09,9E+09,9E+09,9E+09]], v200, fine, pince3;
		MoveL E_2, v50, fine, pince3;
		Set pince;
		WaitTime 1;
		MoveJ [[506.57,-16.21,157.92],[0.0170421,0.187161,-0.981891,-0.0238687],[-1,0,-1,0],[9E+09,9E+09,9E+09,9E+09,9E+09,9E+09]], v200, fine, pince3;
		MoveJ rebouc, v200, z50, pince3;
		MoveJ [[332.44,362.37,583.44],[0.00682547,0.11092,-0.993805,0.00126205],[0,0,0,0],[9E+09,9E+09,9E+09,9E+09,9E+09,9E+09]], v200, z50, pince3;
		MoveL E_1, v200, fine, pince3;
		Reset pince;
		WaitTime 1;
		MoveL [[332.52,362.40,596.44],[0.00687849,0.11094,-0.993802,0.00131406],[0,0,0,0],[9E+09,9E+09,9E+09,9E+09,9E+09,9E+09]], v200, fine, pince3;
		MoveJ rebouc, v200, z50, pince3;
	ENDPROC
	PROC get()
		MoveJ rebouc, v200, z50, pince3;
		MoveJ rebouc30, v200, z50, pince3;
		MoveL E_4, v50, fine, pince3;
		Set pince;
		WaitTime 2;
		MoveL rebouc50, v300, z50, pince3;
		MoveJ rebouc70, v300, z50, pince3;
		MoveL E_3, v50, fine, pince3;
		Reset pince;
		WaitTime 2;
		MoveL rebouc90, v300, z50, pince3;
		MoveJ rebouc, v200, z50, pince3;
	ENDPROC
